X:1
T:Title
%%score { ( 1 3 5 ) | ( 2 4 ) }
L:1/8
M:3/4
K:Bb
V:1 treble nm="Grand Piano"
V:3 treble 
V:5 treble 
V:2 bass 
V:4 bass 
V:1
 z2 z[Q:1/4=100] F F>G | F4 z2 | z2 z B [FA]>B | [Ac]4 z2 | [Bd]4 z2 | [DF]4 z2 | %6
 z2 z B [Ac]>[Bd] | [ce]4 z2 |[M:2/4] [B,DB]4 |[M:4/4] [Fd]2 [DB]>[EG] [DF]4 | %10
 [Fd]2 [DB]>[EG] [DF]4 | [DF]2 A>B c4 |[M:3/4] F2 [FB]>c d2- |[M:1/4] d2 | [Fd]2 | %15
[M:4/4] [DB]>[EG] [DF]4 [Fd]2 | [DB]>[EG] [DF]4 [DF]2 | A>B c2- ce d>c |[M:9/16] [DB]4- [DB]/ |] %19
V:2
 z2 z D D>E | D3 B, D>E | z2 [D,F,]2 z2 | [F,,F,]2 z A [F,A,C]2 | [B,,,B,,]2 z D D>E | %5
 [B,,,B,,]2 z B, D>E | [B,,,B,,]2 [D,F,]2 [D,F,B,]2 | [F,,F,]2 z D E>E |[M:2/4] [B,,D,F,]4 | %9
[M:4/4] [B,,B,]2 [B,,B,]>[B,,B,] [B,,B,]4 | [B,,B,]2 [B,,B,]>[B,,B,] [B,,B,]4 | %11
 [B,,B,]2 [F,CF]>[G,B,D] [F,A,F]4 |[M:3/4] [F,A,]2 [D,B,]>[K:treble][F,A,F] [B,F]2- | %13
[M:1/4] [B,F]2 | [B,,B,]2 |[M:4/4] [B,,B,]>[B,,B,] [B,,B,]4 [B,,B,]2 | %16
 [B,,B,]>[B,,B,] [B,,B,]4 [B,,B,]2 | [F,CF]>[F,B,F] [F,A,F]2- [F,A,F][F,CF] [F,B,F]>[F,A,E] | %18
[M:9/16] [B,,B,]4- [B,,B,]/ |] %19
V:3
 x6 | z2 B,D F>G | [DF]4 z2 | z2 z c [GB][Ac] | z2 z F F>G | z2 B,D F>G | [DF]4 z2 | z2 z F G>A | %8
[M:2/4] x4 |[M:4/4] x8 | x8 | x8 |[M:3/4] x6 |[M:1/4] x2 | x2 |[M:4/4] x8 | x8 | x8 | %18
[M:9/16] x9/2 |] %19
V:4
 x6 | [B,,,D,]2 [D,F,]2 [D,F,B,]2 | [B,,,B,,]2 z D [D,F,B,]2 | z2 [F,A,]2 z2 | %4
 z2 [D,F,]2 [D,F,B,]2 | z2 [D,F,]2 [D,F,B,]2 | x6 | z2 [F,A,]2 [F,A,C]2 |[M:2/4] x4 |[M:4/4] x8 | %10
 x8 | x8 |[M:3/4] x7/2[K:treble] x5/2 |[M:1/4] x2 | x2 |[M:4/4] x8 | x8 | x8 |[M:9/16] x9/2 |] %19
V:5
 x6 | x6 | z2 B,2 z2 | z2 C2 z2 | z2 B,2 z2 | x6 | z2 B,2 z2 | z2 C2 z2 |[M:2/4] x4 |[M:4/4] x8 | %10
 x8 | x8 |[M:3/4] x6 |[M:1/4] x2 | x2 |[M:4/4] x8 | x8 | x8 |[M:9/16] x9/2 |] %19

